svgs/thin/video-arrow-up-right.svg

<svg xmlns="http://www.w3.org/2000/svg" viewBox="0 0 576 512"><!--! Font Awesome Pro 6.6.0 by @fontawesome - https://fontawesome.com License - https://fontawesome.com/license (Commercial License) Copyright 2024 Fonticons, Inc. --><path d="M320 80c26.5 0 48 21.5 48 48l0 74.9 0 106.2 0 74.9c0 26.5-21.5 48-48 48L64 432c-26.5 0-48-21.5-48-48l0-256c0-26.5 21.5-48 48-48l256 0zm64 304l0-47.2 0-27.7 0-106.2 0-27.7 0-47.2c0-35.3-28.7-64-64-64L64 64C28.7 64 0 92.7 0 128L0 384c0 35.3 28.7 64 64 64l256 0c35.3 0 64-28.7 64-64zm32-29.6l103.4 56.9c5.6 3.1 12 4.7 18.4 4.7c21.1 0 38.2-17.1 38.2-38.2l0-243.6c0-21.1-17.1-38.2-38.2-38.2c-6.4 0-12.8 1.6-18.4 4.7L416 157.6l0 18.3 111.1-61.1c3.3-1.8 7-2.7 10.7-2.7c12.3 0 22.2 9.9 22.2 22.2l0 243.6c0 12.3-9.9 22.2-22.2 22.2c-3.7 0-7.4-.9-10.7-2.7L416 336.1l0 18.3zM152 160c-4.4 0-8 3.6-8 8s3.6 8 8 8l108.7 0L98.3 338.3c-3.1 3.1-3.1 8.2 0 11.3s8.2 3.1 11.3 0L272 187.3 272 296c0 4.4 3.6 8 8 8s8-3.6 8-8l0-128c0-4.4-3.6-8-8-8l-128 0z"/></svg>

<svg xmlns="http://www.w3.org/2000/svg" viewBox="0 0 576 512"><!--! Font Awesome Pro 6.4.2 by @fontawesome - https://fontawesome.com License - https://fontawesome.com/license (Commercial License) Copyright 2023 Fonticons, Inc. --><path d="M320 80c26.5 0 48 21.5 48 48v74.9V309.1 384c0 26.5-21.5 48-48 48H64c-26.5 0-48-21.5-48-48V128c0-26.5 21.5-48 48-48H320zm64 304V336.8 309.1 202.9 175.2 128c0-35.3-28.7-64-64-64H64C28.7 64 0 92.7 0 128V384c0 35.3 28.7 64 64 64H320c35.3 0 64-28.7 64-64zm32-29.6l103.4 56.9c5.6 3.1 12 4.7 18.4 4.7c21.1 0 38.2-17.1 38.2-38.2V134.2c0-21.1-17.1-38.2-38.2-38.2c-6.4 0-12.8 1.6-18.4 4.7L416 157.6v18.3l111.1-61.1c3.3-1.8 7-2.7 10.7-2.7c12.3 0 22.2 9.9 22.2 22.2V377.8c0 12.3-9.9 22.2-22.2 22.2c-3.7 0-7.4-.9-10.7-2.7L416 336.1v18.3zM152 160c-4.4 0-8 3.6-8 8s3.6 8 8 8H260.7L98.3 338.3c-3.1 3.1-3.1 8.2 0 11.3s8.2 3.1 11.3 0L272 187.3V296c0 4.4 3.6 8 8 8s8-3.6 8-8V168c0-4.4-3.6-8-8-8H152z"/></svg>
